src/data/flags/hokkaid.svg

<?xml version="1.0" encoding="UTF-8" standalone="no"?>
<!-- Created with Inkscape (http://www.inkscape.org/) -->

<svg
   xmlns:svg="http://www.w3.org/2000/svg"
   xmlns="http://www.w3.org/2000/svg"
   version="1.0"
   width="1200"
   height="800"
   id="svg2">
  <rect
     width="1200"
     height="800"
     style="fill:#2f304e" />
  <path
     d="m 601.43242,141.38046 56.86426,-27.09476 1.1079,166.5413 128.93774,-103.40979 15.20926,62.67259 57.3231,27.09478 -130.96348,104.5177 162.94882,36.03674 -40.73718,50.13808 15.66814,61.10578 -164.5156,-34.46996 75.66602,149.95538 -66.26512,-1.1079 -38.71146,51.24596 L 600.97344,533.08422 529.1688,685.7143 490.18852,633.3604 423.73328,635.1173 495.99684,484.05406 334.69364,520.5497 349.6341,458.985 307.13998,407.73902 470.73772,371.24336 341.8,266.53558 l 58.43108,-27.55368 12.53446,-62.67259 131.61252,105.43551 0.4589,-165.4334 56.59546,25.06904 z"
     id="path1884"
     style="fill:#fff" />
  <path
     d="M 601.56904,140.99998 625.16502,348.64474 801.34852,240.10316 658.1994,386.00508 850.11356,456.39982 646.4015,434.77016 712.62196,630.99998 601.56904,457.18636 491.28638,630.99998 557.52318,435.1634 349.88644,457.99846 544.93868,386.79164 400.6098,238.13684 575.61344,347.46496 601.56904,140.99998 z"
     id="path1882"
     style="fill:#d13a43;fill-opacity:1" />
</svg>

<svg xmlns="http://www.w3.org/2000/svg" version="1.0" width="1200" height="800"><path fill="#2f304e" d="M0 0h1200v800H0z"/><path d="M601.432 141.38l56.865-27.094 1.108 166.541 128.937-103.41 15.21 62.673 57.323 27.095L729.91 371.702 892.86 407.74l-40.737 50.138 15.668 61.106-164.516-34.47 75.666 149.955-66.265-1.108-38.711 51.246-72.992-151.522-71.804 152.63-38.98-52.354-66.456 1.757 72.264-151.063-161.303 36.496 14.94-61.565-42.494-51.246 163.598-36.496L341.8 266.536l58.431-27.554 12.535-62.673 131.612 105.436.459-165.434 56.595 25.07z" fill="#fff"/><path d="M601.569 141l23.596 207.645 176.184-108.542-143.15 145.902L850.114 456.4l-203.712-21.63L712.622 631 601.569 457.186 491.286 631l66.237-195.837-207.637 22.835 195.053-71.206-144.33-148.655 175.004 109.328L601.57 141z" fill="#d13a43"/></svg>
